X: 2240
T: Aye Right
R: reel
M: 4/4
K: Emajor
ef|g2gf gc c/c/c|Bc c/c/c ecfc|g2gf gc c/c/c|Bcef gagf|
g2gf gc c/c/c|Bc c/c/c ecfc|ec c/c/c acec|Bcef e2:|
|:ef|gage BceB|ceBe bege|gage BceB|cege f/f/f fe|
gage BceB|ceBe bege|bege aege|fefg e2:|
|:ef|gebe Bece|Bece Bege|gebe Bece|Bege f/f/f fe|
gebe Bece|Bece Bege|be e/e/a aege|fefg e2:|

